X: 281
T: Haida Haida
O: Trad Jewish
N: The words are meaningless
Z: John Chambers <jc:trillian.mit.edu>
M: 2/4
L: 1/8
K: Am
|: "Am"E A A A | "E7"B ^G/A/ B A | "E7"^G B z B | "Am"c B A2 :|
w: Hai-da hai-da, hai-da-da dai-da, hai-da, hai-da hai-da,
|: "C"e2 c2 | e d/e/ d c | "G"B d "(E7)"z d | "C(Am)"e d c2 :|
w: Hai-da, hai-da-da dai-da, hai-da, hai-da hai-da.



